X: 1
T: La-haut dessur ces landes (rid\'ee 6 temps)
O: trad. Brittany
S: handout at NEFFA 2016 from Mark Vidor p.4 #1, from a transcription by Yann-Fanch Perroches
Z: 2016 John Chambers <jc:trillian.mit.edu>
M: 6/4
L: 1/8
K: Am
|:\
"Am"AG AB "F"c2Bc "Dm"dc "Em"BB |\
AG AB "F"c2 Bc "Dm"dc "Em"B2 :|
|:\
"Am"c2 A2 "G"GA Bd "F"cB AB |\
"F"c2 A2 "G"BA Bd "Am"cB A2 :|
|:\
"Am"EA AF "Em"G2 "Am"Ac "Em"BA GF |\
"Am"EA AF "Em"G2 "Am"(3ABc "Em"BG "Am"A2 :|
